brandFactory_export/1.Light/Descargar de la nube_1Light.svg

<?xml version="1.0" encoding="UTF-8"?>
<svg width="24px" height="24px" viewBox="0 0 24 24" version="1.1" xmlns="http://www.w3.org/2000/svg" xmlns:xlink="http://www.w3.org/1999/xlink">
    <title>1.Light/Descargar de la nube_1Light</title>
    <g id="Symbols" stroke="none" stroke-width="1" fill="none" fill-rule="evenodd">
        <g id="1.Light/Descargar-de-la-nube_1Light" fill="#5CB615" fill-rule="nonzero">
            <path d="M17.4117647,18.3529412 L16.2386555,18.3630252 L17.4621849,17.0655462 C17.6705882,16.8302521 17.7277311,16.5008403 17.610084,16.2084034 C17.492437,15.9226891 17.2168067,15.7277311 16.907563,15.7277311 L14.9042017,15.7277311 L14.8941176,10.302521 C14.8840336,9.87226891 14.5512605,9.51596639 14.1243697,9.51596639 L9.48571429,9.51596639 C9.06218487,9.51596639 8.71596639,9.87226891 8.71596639,10.302521 L8.71596639,15.6268908 L6.70252101,15.6268908 C6.39663866,15.6268908 6.1210084,15.8117647 6,16.107563 C5.88235294,16.4033613 5.94285714,16.7294118 6.15798319,16.9680672 L7.52941176,18.4201681 L5.06218487,18.4302521 C3.83865546,18.4302521 0.98487395,18.0201681 0.98487395,14.2218487 C0.98487395,12.097479 1.87563025,10.7462185 3.6302521,10.2252101 C3.8487395,10.1647059 3.98319328,9.82521008 3.98319328,9.60336134 C3.98319328,3.51596639 9.10588235,3.04201681 10.6756303,3.04201681 C11.5630252,3.04201681 16.0571429,3.24705882 17.1327731,7.38487395 C17.1831933,7.6 17.3680672,7.7512605 17.5966387,7.76134454 C19.1092437,7.80168067 22.6319349,8.40336134 22.6319349,13.0453782 C22.6352941,17.9731092 18.6386555,18.3529412 17.4117647,18.3529412 Z M11.8756303,21.5630252 L7.23361345,16.6487395 L8.94117647,16.6487395 C9.36806723,16.6487395 9.70084034,16.292437 9.70084034,15.8621849 L9.70084034,10.5378151 L13.9058824,10.5378151 L13.9159664,15.9630252 C13.9159664,16.4033613 14.2621849,16.7495798 14.6857143,16.7495798 L16.3731092,16.7495798 L11.8756303,21.5630252 Z M17.9865546,6.75630252 C16.5747899,2.2487395 11.6705882,2.01680672 10.6823529,2.01680672 C9.40840336,2.01680672 3.12941176,2.37310924 3.00168067,9.36470588 C1.73781513,9.84537815 0,11.0722689 0,14.2184874 C0,18.0806723 2.61848739,19.4487395 5.07563025,19.4487395 L8.4907563,19.4285714 L11.3243697,22.4436975 C11.4722689,22.5983193 11.6705882,22.6890756 11.8789916,22.6890756 C12.0773109,22.6890756 12.2722689,22.5983193 12.4201681,22.4436975 L15.2840336,19.3983193 L17.4151261,19.3781513 C18.4537815,19.3781513 23.6268908,19.0823529 23.6268908,13.0420168 C23.6235294,7.76806723 19.6840336,6.88739496 17.9865546,6.75630252 L17.9865546,6.75630252 Z" id="Descargar-de-la-nube_1Light"></path>
        </g>
    </g>
</svg>

<svg width="24" height="24" viewBox="0 0 24 24" xmlns="http://www.w3.org/2000/svg"><path d="M17.412 18.353l-1.173.01 1.223-1.297a.824.824 0 00.148-.858.767.767 0 00-.702-.48h-2.004l-.01-5.425c-.01-.43-.343-.787-.77-.787H9.486a.782.782 0 00-.77.787v5.324H6.703a.758.758 0 00-.703.48.819.819 0 00.158.861l1.371 1.452-2.467.01c-1.223 0-4.077-.41-4.077-4.208 0-2.125.89-3.476 2.645-3.997.219-.06.353-.4.353-.622 0-6.087 5.123-6.561 6.693-6.561.887 0 5.381.205 6.457 4.343a.49.49 0 00.464.376c1.512.04 5.035.642 5.035 5.284.003 4.928-3.993 5.308-5.22 5.308zm-5.536 3.21l-4.642-4.914H8.94c.427 0 .76-.357.76-.787v-5.324h4.205l.01 5.425c0 .44.346.787.77.787h1.687l-4.497 4.813zm6.11-14.807c-1.411-4.507-6.315-4.74-7.304-4.74-1.274 0-7.553.357-7.68 7.349C1.738 9.845 0 11.072 0 14.218c0 3.863 2.618 5.23 5.076 5.23l3.415-.02 2.833 3.016a.77.77 0 00.555.245c.198 0 .393-.09.541-.245l2.864-3.046 2.131-.02c1.039 0 6.212-.296 6.212-6.336-.003-5.274-3.943-6.155-5.64-6.286z" fill="#5CB615" fill-rule="nonzero"/></svg>
